public/logo.svg

<svg width="139" height="20" viewBox="0 0 139 20" fill="none" xmlns="http://www.w3.org/2000/svg">
<g clip-path="url(#clip0_141_43)">
<path d="M37.7541 15.847C40.6061 15.847 42.9061 14.225 43.7061 11.631H39.8091C39.4331 12.296 38.6691 12.697 37.7541 12.697C36.5171 12.697 35.6891 12.023 35.4341 10.719H43.8741C43.9251 10.367 43.9551 10.025 43.9551 9.682C43.9551 6.347 41.4181 3.732 37.7541 3.732C34.1861 3.732 31.5791 6.296 31.5791 9.781C31.5791 13.254 34.2071 15.847 37.7541 15.847ZM40.0981 8.55H35.5021C35.8191 7.421 36.6121 6.801 37.7541 6.801C38.9351 6.801 39.7541 7.413 40.0981 8.55ZM51.0441 15.846C52.3641 15.846 53.5441 15.412 54.4741 14.658L54.8101 15.462H57.8371V4.093H54.9181L54.5181 4.973C53.5781 4.198 52.3831 3.751 51.0441 3.751C47.5681 3.751 45.0831 6.256 45.0831 9.777C45.0831 13.31 47.5681 15.847 51.0441 15.847V15.846ZM51.5681 12.379C50.1011 12.379 49.0231 11.271 49.0231 9.786C49.0231 8.311 50.0921 7.203 51.5681 7.203C53.0341 7.203 54.1121 8.311 54.1121 9.786C54.1121 11.271 53.0341 12.379 51.5681 12.379ZM64.6911 15.846C67.7111 15.846 69.7161 14.292 69.7161 11.916C69.7161 9.033 67.3291 8.66 65.5331 8.341C64.4531 8.148 63.5831 7.997 63.5831 7.351C63.5831 6.824 64.0051 6.513 64.6331 6.513C65.3431 6.513 65.8301 6.85 65.8301 7.576H69.4971C69.4531 5.273 67.5771 3.733 64.6811 3.733C61.7691 3.733 59.8271 5.203 59.8271 7.483C59.8271 10.24 62.1641 10.772 63.9271 11.057C65.0191 11.238 65.8791 11.425 65.8791 12.081C65.8791 12.668 65.3361 12.961 64.7631 12.961C64.0211 12.961 63.4431 12.578 63.4431 11.747H59.6731C59.7091 14.21 61.5921 15.847 64.6911 15.847V15.846ZM72.7911 19.704C75.7271 19.704 77.1351 18.447 78.6681 14.968L83.4321 4.105H79.2261L76.9771 10.368L74.5651 4.105H70.3101L75.0081 14.535C74.4781 15.949 74.0251 16.339 72.5281 16.339H71.4501V19.704H72.7911ZM91.2951 15.846C94.7951 15.846 97.2681 13.331 97.2681 9.798C97.2681 6.265 94.7961 3.75 91.2951 3.75C90.2987 3.74223 89.32 4.01383 88.4701 4.534V0H84.6001V15.474H87.4971L87.8671 14.63C88.7901 15.401 89.9691 15.846 91.2951 15.846ZM90.7721 12.379C89.3051 12.379 88.2271 11.271 88.2271 9.799C88.2271 8.313 89.3051 7.205 90.7721 7.205C92.2381 7.205 93.3161 8.313 93.3161 9.798C93.3161 11.271 92.2291 12.379 90.7721 12.379ZM104.37 15.846C105.69 15.846 106.87 15.412 107.8 14.658L108.136 15.462H111.163V4.093H108.245L107.844 4.973C106.905 4.198 105.709 3.751 104.37 3.751C100.894 3.751 98.4101 6.256 98.4101 9.777C98.4101 13.31 100.894 15.847 104.37 15.847V15.846ZM104.894 12.379C103.427 12.379 102.349 11.271 102.349 9.786C102.349 8.311 103.419 7.203 104.894 7.203C106.361 7.203 107.439 8.311 107.439 9.786C107.439 11.271 106.361 12.379 104.894 12.379ZM117.547 15.474V9.403C117.547 7.956 118.249 7.103 119.47 7.103C120.456 7.103 120.953 7.76 120.953 9.083V15.473H124.868V8.543C124.868 5.646 123.135 3.77 120.495 3.77C119.025 3.77 117.762 4.335 116.915 5.278L116.378 4.106H113.631V15.475H117.547V15.474ZM131.295 15.474V10.666L134.143 15.474H138.759L134.857 9.524L138.4 4.105H134.003L131.295 8.559V0H127.379V15.474H131.295Z" fill="#262626"/>
<path fill-rule="evenodd" clip-rule="evenodd" d="M10.802 0L0 19.704H5.986L16.789 0H10.802Z" fill="url(#paint0_linear_141_43)"/>
<path opacity="0.5" fill-rule="evenodd" clip-rule="evenodd" d="M18.1709 0L7.36792 19.704H13.3539L24.1569 0H18.1709Z" fill="url(#paint1_linear_141_43)"/>
<path opacity="0.15" fill-rule="evenodd" clip-rule="evenodd" d="M25.5391 0L14.7371 19.704H20.7231L31.5251 0H25.5391Z" fill="url(#paint2_linear_141_43)"/>
</g>
<defs>
<linearGradient id="paint0_linear_141_43" x1="1212.08" y1="-0.000114289" x2="48.4379" y2="1812.87" gradientUnits="userSpaceOnUse">
<stop stop-color="#33D35E"/>
<stop offset="1" stop-color="#2AB6D9"/>
</linearGradient>
<linearGradient id="paint1_linear_141_43" x1="1219.45" y1="-0.000114289" x2="55.8058" y2="1812.87" gradientUnits="userSpaceOnUse">
<stop stop-color="#33D35E"/>
<stop offset="1" stop-color="#2AB6D9"/>
</linearGradient>
<linearGradient id="paint2_linear_141_43" x1="1226.75" y1="-0.000114289" x2="63.0738" y2="1812.81" gradientUnits="userSpaceOnUse">
<stop stop-color="#33D35E"/>
<stop offset="1" stop-color="#2AB6D9"/>
</linearGradient>
<clipPath id="clip0_141_43">
<rect width="139" height="20" fill="white"/>
</clipPath>
</defs>
</svg>

<svg xmlns="http://www.w3.org/2000/svg" width="139" height="20"><defs><linearGradient id="a" x1="72.195%" x2="17.503%" y1="0%" y2="100%"><stop offset="0%" stop-color="#33D35E"/><stop offset="100%" stop-color="#2AB6D9"/></linearGradient></defs><g fill="none" fill-rule="evenodd"><path fill="#2D314D" fill-rule="nonzero" d="M37.754 15.847c2.852 0 5.152-1.622 5.952-4.216h-3.897c-.376.665-1.14 1.066-2.055 1.066-1.237 0-2.065-.674-2.32-1.978h8.44c.051-.352.081-.694.081-1.037 0-3.335-2.537-5.95-6.201-5.95-3.568 0-6.175 2.564-6.175 6.049 0 3.473 2.628 6.066 6.175 6.066zm2.344-7.297h-4.596c.317-1.129 1.11-1.749 2.252-1.749 1.181 0 2 .613 2.344 1.75zm10.946 7.296c1.32 0 2.5-.434 3.43-1.188l.336.804h3.027V4.093h-2.919l-.4.88c-.94-.775-2.135-1.222-3.474-1.222-3.476 0-5.961 2.505-5.961 6.026 0 3.533 2.485 6.07 5.961 6.07zm.524-3.467c-1.467 0-2.545-1.108-2.545-2.593 0-1.475 1.069-2.583 2.545-2.583 1.466 0 2.544 1.108 2.544 2.583 0 1.485-1.078 2.593-2.544 2.593zm13.123 3.467c3.02 0 5.025-1.554 5.025-3.93 0-2.883-2.387-3.256-4.183-3.575-1.08-.193-1.95-.344-1.95-.99 0-.527.422-.838 1.05-.838.71 0 1.197.337 1.197 1.063h3.667c-.044-2.303-1.92-3.843-4.816-3.843-2.912 0-4.854 1.47-4.854 3.75 0 2.757 2.337 3.289 4.1 3.574 1.092.181 1.952.368 1.952 1.024 0 .587-.543.88-1.116.88-.742 0-1.32-.383-1.32-1.214h-3.77c.036 2.463 1.919 4.1 5.018 4.1zm8.1 3.858c2.936 0 4.344-1.257 5.877-4.736l4.764-10.863h-4.206l-2.249 6.263-2.412-6.263H70.31l4.698 10.43c-.53 1.414-.983 1.804-2.48 1.804H71.45v3.365h1.341zm18.504-3.858c3.5 0 5.973-2.515 5.973-6.048S94.796 3.75 91.295 3.75a5.332 5.332 0 00-2.825.784V0H84.6v15.474h2.897l.37-.844c.923.771 2.102 1.216 3.428 1.216zm-.523-3.467c-1.467 0-2.545-1.108-2.545-2.58 0-1.486 1.078-2.594 2.545-2.594 1.466 0 2.544 1.108 2.544 2.593 0 1.473-1.087 2.58-2.544 2.58zm13.598 3.467c1.32 0 2.5-.434 3.43-1.188l.336.804h3.027V4.093h-2.918l-.401.88c-.939-.775-2.135-1.222-3.474-1.222-3.476 0-5.96 2.505-5.96 6.026 0 3.533 2.484 6.07 5.96 6.07zm.524-3.467c-1.467 0-2.545-1.108-2.545-2.593 0-1.475 1.07-2.583 2.545-2.583 1.467 0 2.545 1.108 2.545 2.583 0 1.485-1.078 2.593-2.545 2.593zm12.653 3.095V9.403c0-1.447.702-2.3 1.923-2.3.986 0 1.483.657 1.483 1.98v6.39h3.915V8.543c0-2.897-1.733-4.773-4.373-4.773-1.47 0-2.733.565-3.58 1.508l-.537-1.172h-2.747v11.369h3.916zm13.748 0v-4.808l2.848 4.808h4.616l-3.902-5.95 3.543-5.419h-4.397l-2.708 4.454V0h-3.916v15.474h3.916z"/><g fill="url(#a)"><path d="M10.802 0L0 19.704h5.986L16.789 0z"/><path opacity=".5" d="M18.171 0L7.368 19.704h5.986L24.157 0z"/><path opacity=".15" d="M25.539 0L14.737 19.704h5.986L31.525 0z"/></g></g></svg>
